X:1
T:Once I Went In Swimmin'
M:4/4
L:1/8
K:C
 G3 GA G^F G| E3 E=F E^D E| D2 C2 B,2 C2| F6 z2| A3 AB A^G A| F3 FG FE F|\
 E2 D2 ^C2 D2| G6 z2| G3 GA G^F G| E3 E=F E^D E| D2 C2 B,2 C2| A6 z2|\
 A3 AB AG ^F| G3 GA G^F G| A2 A2 B2 G2| c6 z2|
